src/assets/outline/GridEraser.svg

<svg width="24" height="24" viewBox="0 0 24 24"  xmlns="http://www.w3.org/2000/svg">
<path d="M10 22.75H9C3.57 22.75 1.25 20.43 1.25 15V9C1.25 3.57 3.57 1.25 9 1.25H15C20.43 1.25 22.75 3.57 22.75 9V11C22.75 11.41 22.41 11.75 22 11.75C21.59 11.75 21.25 11.41 21.25 11V9C21.25 4.39 19.61 2.75 15 2.75H9C4.39 2.75 2.75 4.39 2.75 9V15C2.75 19.61 4.39 21.25 9 21.25H10C10.41 21.25 10.75 21.59 10.75 22C10.75 22.41 10.41 22.75 10 22.75Z" />
<path d="M22.0003 9.25H2.03027C1.62027 9.25 1.28027 8.91 1.28027 8.5C1.28027 8.09 1.62027 7.75 2.03027 7.75H22.0003C22.4103 7.75 22.7503 8.09 22.7503 8.5C22.7503 8.91 22.4103 9.25 22.0003 9.25Z" />
<path d="M12.0003 16.25H2.03027C1.62027 16.25 1.28027 15.91 1.28027 15.5C1.28027 15.09 1.62027 14.75 2.03027 14.75H12.0003C12.4103 14.75 12.7503 15.09 12.7503 15.5C12.7503 15.91 12.4103 16.25 12.0003 16.25Z" />
<path d="M8.50977 22.7395C8.09977 22.7395 7.75977 22.3995 7.75977 21.9895V2.01953C7.75977 1.60953 8.09977 1.26953 8.50977 1.26953C8.91977 1.26953 9.25977 1.60953 9.25977 2.01953V21.9895C9.25977 22.3995 8.92977 22.7395 8.50977 22.7395Z" />
<path d="M15.5098 12.7395C15.0998 12.7395 14.7598 12.3995 14.7598 11.9895V2.01953C14.7598 1.60953 15.0998 1.26953 15.5098 1.26953C15.9198 1.26953 16.2598 1.60953 16.2598 2.01953V11.9895C16.2598 12.3995 15.9298 12.7395 15.5098 12.7395Z" />
<path d="M15.9502 22.7496C15.4102 22.7496 14.8802 22.5496 14.4602 22.1396L12.8702 20.5396C12.0602 19.7296 12.0602 18.3996 12.8702 17.5696L14.7802 15.6696C15.0702 15.3796 15.5502 15.3796 15.8402 15.6696L19.3402 19.1696C19.4802 19.3096 19.5602 19.4996 19.5602 19.6996C19.5602 19.8996 19.4802 20.0896 19.3402 20.2296L17.4402 22.1296C17.0202 22.5396 16.4902 22.7496 15.9502 22.7496ZM15.3002 17.2696L13.9302 18.6396C13.7002 18.8696 13.7002 19.2596 13.9302 19.4896L15.5102 21.0796C15.7402 21.3096 16.1302 21.3096 16.3602 21.0796L17.7402 19.7096L15.3002 17.2696Z" />
<path d="M18.8002 20.4503C18.6002 20.4503 18.4102 20.3704 18.2702 20.2304L14.7702 16.7304C14.4802 16.4404 14.4802 15.9604 14.7702 15.6704L17.5802 12.8504C18.4002 12.0304 19.7402 12.0304 20.5602 12.8504L22.1403 14.4403C22.5303 14.8303 22.7502 15.3604 22.7502 15.9304C22.7502 16.5004 22.5303 17.0204 22.1403 17.4204L19.3402 20.2304C19.1902 20.3804 19.0002 20.4503 18.8002 20.4503ZM16.3702 16.2103L18.8102 18.6504L21.0802 16.3704C21.1902 16.2604 21.2502 16.1103 21.2502 15.9403C21.2502 15.7803 21.1902 15.6204 21.0802 15.5104L19.5002 13.9204C19.2702 13.6904 18.8802 13.6904 18.6502 13.9204L16.3702 16.2103Z" />
</svg>

<?xml version="1.0" encoding="UTF-8"?>
<svg width="24" height="24" viewBox="0 0 24 24" xmlns="http://www.w3.org/2000/svg">
 <path d="m10 22.75h-1c-5.43 0-7.75-2.32-7.75-7.75v-6c0-5.43 2.32-7.75 7.75-7.75h6c5.43 0 7.75 2.32 7.75 7.75v2c0 0.41-0.34 0.75-0.75 0.75s-0.75-0.34-0.75-0.75v-2c0-4.61-1.64-6.25-6.25-6.25h-6c-4.61 0-6.25 1.64-6.25 6.25v6c0 4.61 1.64 6.25 6.25 6.25h1c0.41 0 0.75 0.34 0.75 0.75s-0.34 0.75-0.75 0.75z"/>
 <path d="m22 9.25h-19.97c-0.41 0-0.75-0.34-0.75-0.75s0.34-0.75 0.75-0.75h19.97c0.41 0 0.75 0.34 0.75 0.75s-0.34 0.75-0.75 0.75z"/>
 <path d="m12 16.25h-9.97c-0.41 0-0.75-0.34-0.75-0.75s0.34-0.75 0.75-0.75h9.97c0.41 0 0.75 0.34 0.75 0.75s-0.34 0.75-0.75 0.75z"/>
 <path d="m8.5098 22.74c-0.41 0-0.75-0.34-0.75-0.75v-19.97c0-0.41 0.34-0.75 0.75-0.75s0.75 0.34 0.75 0.75v19.97c0 0.41-0.33 0.75-0.75 0.75z"/>
 <path d="m15.51 12.74c-0.41 0-0.75-0.34-0.75-0.75v-9.97c0-0.41 0.34-0.75 0.75-0.75s0.75 0.34 0.75 0.75v9.97c0 0.41-0.33 0.75-0.75 0.75z"/>
 <path d="m15.95 22.75c-0.54 0-1.07-0.2-1.49-0.61l-1.59-1.6c-0.81-0.81-0.81-2.14 0-2.97l1.91-1.9c0.29-0.29 0.77-0.29 1.06 0l3.5 3.5c0.14 0.14 0.22 0.33 0.22 0.53s-0.08 0.39-0.22 0.53l-1.9 1.9c-0.42 0.41-0.95 0.62-1.49 0.62zm-0.65-5.48-1.37 1.37c-0.23 0.23-0.23 0.62 0 0.85l1.58 1.59c0.23 0.23 0.62 0.23 0.85 0l1.38-1.37-2.44-2.44z"/>
 <path d="m18.8 20.45c-0.2 0-0.39-0.0799-0.53-0.2199l-3.5-3.5c-0.29-0.29-0.29-0.77 0-1.06l2.81-2.82c0.82-0.82 2.16-0.82 2.98 0l1.5801 1.5899c0.39 0.39 0.6099 0.9201 0.6099 1.4901s-0.2199 1.09-0.6099 1.49l-2.8001 2.81c-0.15 0.15-0.34 0.2199-0.54 0.2199zm-2.43-4.24 2.44 2.4401 2.27-2.28c0.11-0.11 0.17-0.2601 0.17-0.4301 0-0.16-0.06-0.3199-0.17-0.4299l-1.58-1.59c-0.23-0.23-0.62-0.23-0.85 0l-2.28 2.2899z"/>
</svg>
